X:0674
M:6/8
L:1/8
Q:3/8=120
K:D
  DFA  d2A| B2A  Bcd| egf   edc| d3   D2 :|
g|fed Tg2e| a2f  a2g|Tf(ef) def| efd Tc>BA|\
  fed  g2e| a2f  a2g|Tfga   Adc|Td3   d2
g|fdf  geg| afa  bgb| afd   Bcd| efd  cBA |\
  AFA Td2A| B2A  Bcd| egf   edc|Td3   D2 |]

